logos/digital-ocean.svg

<?xml version="1.0" encoding="UTF-8"?>
<svg width="256px" height="192px" viewBox="0 0 256 192" version="1.1" xmlns="http://www.w3.org/2000/svg" xmlns:xlink="http://www.w3.org/1999/xlink" preserveAspectRatio="xMidYMid">
	<g fill="#0080FF">
		<path d="M127.806368,103.431977 L127.806368,128.137065 C169.680136,128.137065 202.283513,87.6839887 188.5857,43.8050085 C182.599796,24.6296657 167.363082,9.39295184 148.187739,3.40704816 C104.308759,-10.2907649 63.8549575,22.3133371 63.8549575,64.1871048 L88.6166119,64.1871048 C88.620238,64.1871048 88.6231388,64.1805779 88.6231388,64.1805779 C88.6267649,37.901779 114.633609,17.5849518 142.262028,27.610289 C152.497677,31.3248272 160.662119,39.4878187 164.378833,49.7227422 C174.405673,77.3349616 154.119391,103.331553 127.862935,103.368844 L127.862935,78.7435694 C127.862935,78.7435694 127.860759,78.742119 127.858584,78.742119 L103.173076,78.742119 C103.170901,78.742119 103.168725,78.745745 103.168725,78.745745 L103.168725,103.431977 L127.806368,103.431977 Z M103.164374,122.405711 L84.1971671,122.405711 L84.1928159,122.40136 L84.1928159,103.431977 L103.168725,103.431977 L103.168725,122.40136 C103.168725,122.40136 103.16655,122.405711 103.164374,122.405711 Z M84.2058697,103.431977 L68.3055864,103.431977 C68.2990595,103.431977 68.293983,103.427626 68.293983,103.427626 L68.293983,87.5345949 C68.293983,87.5345949 68.2990595,87.5229915 68.3055864,87.5229915 L84.1942663,87.5229915 C84.2007932,87.5229915 84.2058697,87.528068 84.2058697,87.528068 L84.2058697,103.431977 Z"></path>
		<path d="M22.0964986,153.197507 C18.8772805,150.963853 14.8712068,149.831796 10.1899603,149.831796 L0,149.831796 L0,182.161042 L10.1899603,182.161042 C14.8596034,182.161042 18.8671275,180.965892 22.1001246,178.611127 C23.8594901,177.362312 25.241745,175.61745 26.2091785,173.426584 C27.1715354,171.24732 27.6596034,168.676442 27.6596034,165.78647 C27.6596034,162.929858 27.1715354,160.39234 26.2084533,158.243535 C25.241745,156.084578 23.8580397,154.386856 22.0964986,153.197507 Z M5.9518187,155.296272 L9.15000567,155.296272 C12.7086232,155.296272 15.6377564,155.996102 17.8590822,157.379082 C20.3248045,158.865768 21.575796,161.694096 21.575796,165.78647 C21.575796,170.001405 20.3219037,172.957371 17.8503796,174.57532 L17.848204,174.57532 C15.7211558,175.982232 12.8094278,176.695841 9.19424363,176.695841 L5.9518187,176.695841 L5.9518187,155.296272 Z M31.8332011,182.161042 L37.5631048,182.161042 L37.5631048,159.390822 L31.8332011,159.390822 L31.8332011,182.161042 Z M34.7529065,149.433654 C33.7738697,149.433654 32.9297224,149.781031 32.2501983,150.46128 C31.5626969,151.116147 31.2138697,151.946516 31.2138697,152.929178 C31.2138697,153.908215 31.5605212,154.751637 32.245847,155.436238 C32.9297224,156.121564 33.7738697,156.468941 34.7529065,156.468941 C35.7319433,156.468941 36.5753654,156.121564 37.2606912,155.436238 C37.9467422,154.750912 38.2933938,153.90749 38.2933938,152.929178 C38.2933938,151.947966 37.9445666,151.117598 37.2606912,150.465632 C36.5753654,149.781031 35.7319433,149.433654 34.7529065,149.433654 Z M58.3709008,161.293054 C56.6434448,159.756329 54.7143796,158.859966 52.6279433,158.859966 C49.4652918,158.859966 46.8363966,159.954312 44.8152295,162.109643 C42.7686799,164.248295 41.7301756,167.000476 41.7301756,170.289314 C41.7301756,173.503456 42.752,176.24621 44.7717167,178.445779 C46.8073881,180.573552 49.4507875,181.651943 52.6279433,181.651943 C54.8369405,181.651943 56.7355467,181.036963 58.2831501,179.822232 L58.2831501,180.346561 C58.2831501,182.235739 57.7769518,183.705745 56.7797847,184.715241 C55.7833428,185.723286 54.4010878,186.233836 52.6729065,186.233836 C50.0280567,186.233836 48.370221,185.194606 46.3519547,182.467082 L42.4503116,186.215705 L42.5554674,186.363649 C43.3981643,187.54647 44.6890425,188.703909 46.3925666,189.804057 C48.0968159,190.899127 50.2390935,191.456091 52.7606572,191.456091 C56.1626289,191.456091 58.914085,190.407433 60.9403286,188.339853 C62.9781756,186.261394 64.0116034,183.478028 64.0116034,180.070255 L64.0116034,159.390822 L58.3709008,159.390822 L58.3709008,161.293054 Z M56.8682606,174.741394 C55.8667422,175.878527 54.5809405,176.429688 52.9376091,176.429688 C51.2950028,176.429688 50.0164533,175.878527 49.0294391,174.742844 C48.0475014,173.612238 47.5485552,172.113949 47.5485552,170.289314 C47.5485552,168.434946 48.0475014,166.917802 49.0301643,165.779218 C50.0033994,164.652963 51.3182096,164.081496 52.9376091,164.081496 C54.5794901,164.081496 55.866017,164.637008 56.8675354,165.782119 C57.8654278,166.919977 58.3709008,168.436397 58.3709008,170.289314 C58.3709008,172.113224 57.8654278,173.611513 56.8682606,174.741394 Z M68.9154901,182.161042 L74.6453938,182.161042 L74.6453938,159.390822 L68.9154901,159.390822 L68.9154901,182.161042 Z M71.8359207,149.433654 C70.8561586,149.433654 70.0120113,149.781031 69.3324873,150.46128 C68.6449858,151.116147 68.2961586,151.946516 68.2961586,152.929178 C68.2961586,153.908215 68.6428102,154.751637 69.328136,155.436238 C70.0120113,156.121564 70.8561586,156.468941 71.8359207,156.468941 C72.8142323,156.468941 73.6576544,156.121564 74.3437054,155.436238 C75.0290312,154.750912 75.3756827,153.90749 75.3756827,152.929178 C75.3756827,151.947966 75.0268555,151.117598 74.3437054,150.465632 C73.6576544,149.781031 72.8142323,149.433654 71.8359207,149.433654 Z M87.203898,153.238844 L81.5631955,153.238844 L81.5631955,159.390822 L78.2874108,159.390822 L78.2874108,164.613076 L81.5631955,164.613076 L81.5631955,174.071297 C81.5631955,177.03089 82.1542436,179.14851 83.3211105,180.364691 C84.4908782,181.586674 86.5678867,182.206006 89.4948442,182.206006 C90.426017,182.206006 91.3629915,182.174822 92.2789348,182.115354 L92.5371105,182.097949 L92.5371105,176.880045 L90.5725099,176.983025 C89.2083853,176.983025 88.2975184,176.74298 87.8645666,176.271592 C87.425813,175.792227 87.203898,174.77838 87.203898,173.259059 L87.203898,164.613076 L92.5371105,164.613076 L92.5371105,159.390822 L87.203898,159.390822 L87.203898,153.238844 Z M112.201972,161.094346 L112.201246,161.094346 C110.465088,159.612011 108.064635,158.859966 105.068057,158.859966 C103.161473,158.859966 101.378901,159.278414 99.7660283,160.096453 C98.2742663,160.85285 96.8093371,162.106017 95.8781643,163.745722 L95.9361813,163.815343 L99.6050312,167.327547 C101.116374,164.918391 102.796691,164.081496 105.024544,164.081496 C106.22187,164.081496 107.215411,164.402765 107.979059,165.035875 C108.738357,165.664635 109.108215,166.464544 109.108215,167.478391 L109.108215,168.58434 C107.687524,168.152113 106.270459,167.933099 104.89183,167.933099 C102.040295,167.933099 99.7203399,168.603921 97.9965099,169.926708 C96.2509235,171.266176 95.3661643,173.182187 95.3661643,175.622527 C95.3661643,177.761904 96.1124079,179.499513 97.5889405,180.791841 C99.0785269,182.037756 100.939422,182.670867 103.121586,182.670867 C105.303025,182.670867 107.343773,181.791184 109.196691,180.286368 L109.196691,182.161042 L114.838119,182.161042 L114.838119,167.523354 C114.838119,164.751592 113.951184,162.589008 112.201972,161.094346 Z M102.028691,173.459943 C102.678482,173.006686 103.596601,172.778244 104.758391,172.778244 C106.137745,172.778244 107.600499,173.055275 109.108215,173.602085 L109.108215,175.835739 C107.863025,176.993178 106.199388,177.580601 104.162266,177.580601 C103.170176,177.580601 102.399275,177.360136 101.869144,176.924283 C101.349167,176.497858 101.096068,175.955399 101.096068,175.267898 C101.096068,174.486844 101.401382,173.895071 102.028691,173.459943 Z M119.403331,182.161042 L125.133235,182.161042 L125.133235,149.831796 L119.403331,149.831796 L119.403331,182.161042 Z M145.922176,182.648385 C136.732283,182.648385 129.256068,175.17217 129.256068,165.981552 C129.256068,156.79166 136.732283,149.315445 145.922176,149.315445 C155.112068,149.315445 162.588283,156.79166 162.588283,165.981552 C162.588283,175.17217 155.112068,182.648385 145.922176,182.648385 Z M145.922176,155.188941 C139.971082,155.188941 135.129564,160.030459 135.129564,165.981552 C135.129564,171.933371 139.971082,176.774164 145.922176,176.774164 C151.873269,176.774164 156.714788,171.933371 156.714788,165.981552 C156.714788,160.030459 151.873269,155.188941 145.922176,155.188941 Z M183.018969,174.019082 C181.994244,175.167819 180.945586,176.163535 180.1377,176.681337 L180.1377,176.682062 C179.345768,177.190436 178.3457,177.448612 177.166504,177.448612 C175.47821,177.448612 174.120612,176.833632 173.014663,175.567411 C171.915241,174.307717 171.357552,172.689042 171.357552,170.75345 C171.357552,168.818584 171.907989,167.202085 172.993632,165.951819 C174.085076,164.69285 175.435422,164.081496 177.122266,164.081496 C178.967932,164.081496 180.913677,165.228782 182.580941,167.200635 L186.368,163.568771 C183.898652,160.355354 180.749054,158.859966 176.990278,158.859966 C173.843581,158.859966 171.116782,160.005802 168.885303,162.264839 C166.664703,164.507195 165.539173,167.363807 165.539173,170.75345 C165.539173,174.143819 166.663977,177.006958 168.881677,179.264544 C171.101552,181.524306 173.829802,182.670867 176.990278,182.670867 C181.138493,182.670867 184.486799,180.879592 186.744385,177.598731 L183.018969,174.019082 Z M206.535433,162.572329 C205.723195,161.439547 204.616521,160.52868 203.24587,159.86221 C201.878844,159.19719 200.285552,158.859966 198.510958,158.859966 C195.312771,158.859966 192.695479,160.039887 190.730153,162.369269 C188.822844,164.680521 187.856861,167.553088 187.856861,170.908646 C187.856861,174.359207 188.917122,177.215819 191.00936,179.397983 C193.089269,181.569269 195.874085,182.670867 199.285484,182.670867 C203.149416,182.670867 206.320045,181.108034 208.708895,178.025881 L208.837983,177.859807 L205.100238,174.26783 C204.753586,174.685552 204.262618,175.159841 203.814436,175.581915 C203.248771,176.115671 202.71719,176.529042 202.148623,176.811875 C201.292147,177.2383 200.331966,177.448612 199.257201,177.448612 C197.669711,177.448612 196.354901,176.981575 195.349756,176.060555 C194.409881,175.199003 193.86017,174.037212 193.714402,172.602017 L208.89455,172.602017 L208.94604,170.510504 C208.94604,169.030346 208.744431,167.604578 208.347014,166.271637 C207.949598,164.936521 207.339694,163.691331 206.535433,162.572329 Z M194.012465,167.933099 C194.288045,166.84383 194.789892,165.936589 195.508578,165.232408 C196.28528,164.468034 197.295501,164.081496 198.512408,164.081496 C199.90119,164.081496 200.97668,164.476011 201.707694,165.25779 C202.385768,165.980102 202.767955,166.879365 202.847728,167.933099 L194.012465,167.933099 Z M228.53983,161.094346 L228.539105,161.094346 C226.802946,159.612011 224.402493,158.859966 221.405915,158.859966 C219.499331,158.859966 217.716759,159.278414 216.103887,160.096453 C214.611399,160.85285 213.14647,162.106017 212.216023,163.745722 L212.27404,163.815343 L215.94289,167.327547 C217.454232,164.918391 219.13455,164.081496 221.362402,164.081496 C222.559728,164.081496 223.553269,164.402765 224.316918,165.035875 C225.076215,165.664635 225.446074,166.464544 225.446074,167.478391 L225.446074,168.58434 C224.024657,168.152113 222.608317,167.933099 221.228963,167.933099 C218.378153,167.933099 216.057473,168.603921 214.334368,169.926708 C212.588782,171.266176 211.704023,173.182187 211.704023,175.622527 C211.704023,177.761904 212.450266,179.499513 213.926799,180.791841 C215.41566,182.037756 217.27728,182.670867 219.459445,182.670867 C221.640884,182.670867 223.681632,181.791184 225.533824,180.286368 L225.533824,182.161042 L231.175977,182.161042 L231.175977,167.523354 C231.175977,164.751592 230.289042,162.589008 228.53983,161.094346 Z M218.36655,173.459943 C219.01634,173.006686 219.934459,172.778244 221.096249,172.778244 C222.475603,172.778244 223.938357,173.055275 225.446074,173.602085 L225.446074,175.835739 C224.200159,176.993178 222.537246,177.580601 220.499399,177.580601 C219.508034,177.580601 218.737133,177.360136 218.207003,176.924283 C217.687025,176.497858 217.433926,175.955399 217.433926,175.267898 C217.433926,174.486844 217.739241,173.895071 218.36655,173.459943 Z M253.218085,161.541076 C251.621892,159.762856 249.379535,158.859966 246.551207,158.859966 C244.278391,158.859966 242.432,159.512657 241.051195,160.800635 L241.051195,159.390822 L235.432249,159.390822 L235.432249,182.161042 L241.162153,182.161042 L241.162153,169.603263 C241.162153,167.877983 241.572623,166.508057 242.38196,165.53047 C243.189847,164.555785 244.300147,164.081496 245.77668,164.081496 C247.07481,164.081496 248.058198,164.50502 248.784136,165.376 C249.512975,166.251331 249.882108,167.456635 249.882108,168.962176 L249.882108,182.161042 L255.612011,182.161042 L255.612011,168.962176 C255.612011,165.808227 254.807025,163.312045 253.218085,161.541076 Z"></path>
	</g>
</svg>

<svg width="256" height="192" xmlns="http://www.w3.org/2000/svg" preserveAspectRatio="xMidYMid">
	<g fill="#0080FF">
		<path d="M127.806 103.432v24.705c41.874 0 74.478-40.453 60.78-84.332C182.6 24.63 167.363 9.393 148.188 3.407c-43.88-13.698-84.333 18.906-84.333 60.78h24.762c.003 0 .006-.006.006-.006.004-26.28 26.01-46.596 53.639-36.57 10.236 3.714 18.4 11.877 22.117 22.112 10.027 27.612-10.26 53.609-36.516 53.646V78.744l-.004-.002h-24.686c-.002 0-.004.004-.004.004v24.686h24.637Zm-24.642 18.974H84.197l-.004-.005v-18.969h18.976v18.97s-.002.004-.005.004Zm-18.958-18.974h-15.9c-.007 0-.012-.004-.012-.004V87.535s.005-.012.012-.012h15.888c.007 0 .012.005.012.005v15.904Z"/>
		<path d="M22.096 153.198c-3.219-2.234-7.225-3.366-11.906-3.366H0v32.329h10.19c4.67 0 8.677-1.195 11.91-3.55 1.76-1.249 3.142-2.994 4.11-5.184.962-2.18 1.45-4.75 1.45-7.64 0-2.857-.488-5.395-1.452-7.543-.966-2.16-2.35-3.857-4.112-5.046Zm-16.144 2.098H9.15c3.559 0 6.488.7 8.71 2.083 2.465 1.487 3.716 4.315 3.716 8.407 0 4.215-1.254 7.171-3.726 8.79h-.002c-2.127 1.406-5.039 2.12-8.654 2.12H5.952v-21.4Zm25.881 26.865h5.73v-22.77h-5.73v22.77Zm2.92-32.727c-.98 0-1.823.347-2.503 1.027-.687.655-1.036 1.486-1.036 2.468 0 .98.347 1.823 1.032 2.507.684.686 1.528 1.033 2.507 1.033.979 0 1.822-.347 2.508-1.033.686-.685 1.032-1.529 1.032-2.507 0-.981-.348-1.811-1.032-2.463a3.43 3.43 0 0 0-2.508-1.032Zm23.618 11.86c-1.728-1.538-3.657-2.434-5.743-2.434-3.163 0-5.792 1.094-7.813 3.25-2.046 2.138-3.085 4.89-3.085 8.18 0 3.213 1.022 5.956 3.042 8.156 2.035 2.128 4.679 3.206 7.856 3.206 2.209 0 4.108-.615 5.655-1.83v.525c0 1.889-.506 3.359-1.503 4.368-.997 1.008-2.379 1.519-4.107 1.519-2.645 0-4.303-1.04-6.321-3.767l-3.902 3.749.105.148c.843 1.182 2.134 2.34 3.838 3.44 1.704 1.095 3.846 1.652 6.368 1.652 3.402 0 6.153-1.049 8.18-3.116 2.037-2.079 3.07-4.862 3.07-8.27v-20.68h-5.64v1.903Zm-1.503 13.447c-1.001 1.138-2.287 1.689-3.93 1.689-1.643 0-2.922-.551-3.909-1.687-.981-1.13-1.48-2.63-1.48-4.454 0-1.854.499-3.371 1.481-4.51.973-1.126 2.288-1.698 3.908-1.698 1.641 0 2.928.556 3.93 1.701.997 1.138 1.503 2.654 1.503 4.507 0 1.824-.506 3.323-1.503 4.452Zm12.047 7.42h5.73v-22.77h-5.73v22.77Zm2.92-32.727c-.979 0-1.823.347-2.503 1.027-.687.655-1.036 1.486-1.036 2.468 0 .98.347 1.823 1.032 2.507.684.686 1.528 1.033 2.508 1.033a3.43 3.43 0 0 0 2.508-1.033c.685-.685 1.032-1.529 1.032-2.507 0-.981-.35-1.811-1.032-2.463a3.433 3.433 0 0 0-2.508-1.032Zm15.369 3.805h-5.64v6.152h-3.277v5.222h3.276v9.458c0 2.96.591 5.078 1.758 6.294 1.17 1.222 3.247 1.841 6.174 1.841.931 0 1.868-.031 2.784-.09l.258-.018v-5.218l-1.964.103c-1.365 0-2.275-.24-2.708-.711-.44-.48-.661-1.494-.661-3.013v-8.646h5.333v-5.222h-5.333v-6.152Zm24.998 7.855c-1.737-1.482-4.137-2.234-7.134-2.234-1.907 0-3.69.418-5.302 1.236-1.492.757-2.957 2.01-3.888 3.65l.058.07 3.669 3.512c1.511-2.41 3.192-3.247 5.42-3.247 1.197 0 2.19.322 2.954.955.76.629 1.13 1.429 1.13 2.442v1.106a14.494 14.494 0 0 0-4.217-.65c-2.852 0-5.172.67-6.895 1.993-1.746 1.34-2.63 3.255-2.63 5.696 0 2.139.745 3.877 2.222 5.169 1.49 1.246 3.35 1.879 5.533 1.879 2.181 0 4.222-.88 6.075-2.385v1.875h5.641v-14.638c0-2.771-.887-4.934-2.636-6.429Zm-10.173 12.366c.65-.453 1.568-.682 2.73-.682 1.379 0 2.841.277 4.35.824v2.234c-1.246 1.157-2.91 1.745-4.947 1.745-.992 0-1.763-.22-2.293-.657-.52-.426-.773-.969-.773-1.656 0-.781.305-1.373.933-1.808Zm17.374 8.701h5.73v-32.33h-5.73v32.33Zm26.52.487c-9.19 0-16.667-7.476-16.667-16.666 0-9.19 7.476-16.667 16.666-16.667 9.19 0 16.666 7.477 16.666 16.667 0 9.19-7.476 16.666-16.666 16.666Zm0-27.46c-5.952 0-10.793 4.842-10.793 10.794 0 5.951 4.841 10.792 10.792 10.792s10.793-4.84 10.793-10.792-4.842-10.793-10.793-10.793Zm37.096 18.831c-1.025 1.149-2.073 2.145-2.881 2.662v.001c-.792.508-1.792.767-2.971.767-1.689 0-3.046-.615-4.152-1.882-1.1-1.26-1.657-2.878-1.657-4.814 0-1.934.55-3.55 1.636-4.801 1.091-1.26 2.441-1.87 4.128-1.87 1.846 0 3.792 1.147 5.459 3.119l3.787-3.632c-2.47-3.214-5.619-4.709-9.378-4.709-3.146 0-5.873 1.146-8.105 3.405-2.22 2.242-3.346 5.099-3.346 8.488 0 3.39 1.125 6.254 3.343 8.512 2.22 2.26 4.948 3.406 8.108 3.406 4.148 0 7.497-1.791 9.754-5.072l-3.725-3.58Zm23.516-11.447c-.812-1.132-1.918-2.043-3.29-2.71-1.366-.665-2.96-1.002-4.734-1.002-3.198 0-5.816 1.18-7.78 3.51-1.908 2.31-2.874 5.183-2.874 8.539 0 3.45 1.06 6.307 3.152 8.489 2.08 2.171 4.865 3.273 8.276 3.273 3.864 0 7.035-1.563 9.424-4.645l.129-.166-3.738-3.592c-.346.418-.837.892-1.286 1.314-.565.534-1.097.947-1.665 1.23-.857.426-1.817.637-2.892.637-1.587 0-2.902-.467-3.907-1.388-.94-.862-1.49-2.024-1.636-3.459h15.18l.052-2.091c0-1.48-.202-2.906-.599-4.24a12.37 12.37 0 0 0-1.812-3.699Zm-12.523 5.361c.276-1.09.778-1.996 1.497-2.7.776-.765 1.787-1.152 3.003-1.152 1.39 0 2.465.395 3.196 1.177.678.722 1.06 1.621 1.14 2.675h-8.836Zm34.528-6.839c-1.737-1.482-4.138-2.234-7.134-2.234-1.907 0-3.69.418-5.302 1.236-1.493.757-2.958 2.01-3.888 3.65l.058.07 3.669 3.512c1.511-2.41 3.192-3.247 5.42-3.247 1.197 0 2.19.322 2.954.955.76.629 1.13 1.429 1.13 2.442v1.106a14.5 14.5 0 0 0-4.218-.65c-2.85 0-5.172.67-6.895 1.993-1.745 1.34-2.63 3.255-2.63 5.696 0 2.139.746 3.877 2.223 5.169 1.489 1.246 3.35 1.879 5.532 1.879s4.223-.88 6.075-2.385v1.875h5.642v-14.638c0-2.771-.887-4.934-2.636-6.429Zm-10.173 12.366c.65-.453 1.567-.682 2.73-.682 1.379 0 2.841.277 4.35.824v2.234c-1.247 1.157-2.91 1.745-4.948 1.745-.991 0-1.762-.22-2.292-.657-.52-.426-.773-.969-.773-1.656 0-.781.305-1.373.933-1.808Zm34.851-11.919c-1.596-1.778-3.838-2.681-6.667-2.681-2.273 0-4.119.653-5.5 1.94v-1.41h-5.619v22.771h5.73v-12.558c0-1.725.41-3.095 1.22-4.073.808-.974 1.918-1.449 3.395-1.449 1.298 0 2.281.424 3.007 1.295.729.875 1.098 2.08 1.098 3.586v13.199h5.73v-13.199c0-3.154-.805-5.65-2.394-7.42Z"/>
	</g>
</svg>
